icons/device/microphone-slash.svg

<svg width="32" height="32" viewBox="0 0 32 32" fill="none" xmlns="http://www.w3.org/2000/svg">
<path fill-rule="evenodd" clip-rule="evenodd" d="M23.4766 24.8908L28.793 30.2071L30.2072 28.7929L3.20718 1.79289L1.79297 3.20711L10.0001 11.4142V20C10.0001 21.1046 10.8955 22 12.0001 22H20.0001C20.1792 22 20.3529 21.9764 20.5181 21.9323L22.032 23.4462C21.4365 23.7981 20.7419 24 20.0001 24H17.0001H15.0001H12.0001C9.79094 24 8.00008 22.2091 8.00008 20V16H6.00008V20C6.00008 23.3137 8.68637 26 12.0001 26H15.0001V28H10.0001V30H22.0001V28H17.0001V26H20.0001C21.2959 26 22.4958 25.5892 23.4766 24.8908ZM18.5859 20L12.0001 13.4142V20H18.5859ZM26.0001 20C26.0001 20.2791 25.981 20.5538 25.9441 20.8227L24.0001 18.8787V16H26.0001V20ZM22.0001 4V16.8787L20.0001 14.8787V4H12.0001V6.87868L10.0001 4.87868V4C10.0001 2.89543 10.8955 2 12.0001 2H20.0001C21.1046 2 22.0001 2.89543 22.0001 4Z" fill="black"/>
</svg>

<svg width="32" height="32" viewBox="0 0 32 32" xmlns="http://www.w3.org/2000/svg">
    <path fill-rule="evenodd" d="M23.477 24.89l5.316 5.317 1.414-1.414-27-27-1.414 1.414L10 11.414V20a2 2 0 002 2h8c.18 0 .353-.024.518-.068l1.514 1.514A3.981 3.981 0 0120 24h-8a4 4 0 01-4-4v-4H6v4a6 6 0 006 6h3v2h-5v2h12v-2h-5v-2h3c1.296 0 2.496-.41 3.477-1.11zM18.586 20L12 13.414V20h6.586zM26 20c0 .28-.019.554-.056.823L24 18.879V16h2v4zM22 4v12.879l-2-2V4h-8v2.879l-2-2V4a2 2 0 012-2h8a2 2 0 012 2z"/>
</svg>
